src/assets/Imgs/proposal/vote.svg

<svg fill="none" height="20" viewBox="0 0 20 20" width="20" xmlns="http://www.w3.org/2000/svg"><g fill="#1a1323"><path d="m4.44466 5.55566v4.44444h-.55555c-.30112 0-.55556.2489-.55556.5556 0 .2977.24889.5555.55556.5555h12.22219c.3011 0 .5556-.2489.5556-.5555l-.0089-.0978c-.0241-.1278-.0918-.2432-.1915-.3266-.0997-.0835-.2252-.1299-.3552-.1312h-.5555v-4.44444h2.2133c.6189 0 1.12.49445 1.12 1.10667v10.00887c0 .6111-.4944 1.1067-1.1111 1.1067h-15.55556c-.61333 0-1.11111-.4945-1.11111-1.1067v-10.00887c0-.61111.49222-1.10667 1.10778-1.10667zm11.11114 8.88894h-11.11114v1.6666h11.11114zm-1.1111-8.88894v4.44444h-8.88893v-4.44444z"/><path d="m5.55566 2.22217h8.88894v5.55555h-8.88894z"/></g></svg>

<svg width="20" height="20" viewBox="0 0 20 20" fill="none" xmlns="http://www.w3.org/2000/svg" id="vote">
<path d="M4.44466 5.55566V10.0001H3.88911C3.58799 10.0001 3.33355 10.249 3.33355 10.5557C3.33355 10.8534 3.58244 11.1112 3.88911 11.1112H16.1113C16.4124 11.1112 16.6669 10.8623 16.6669 10.5557L16.658 10.4579C16.6339 10.3301 16.5662 10.2147 16.4665 10.1313C16.3668 10.0478 16.2413 10.0014 16.1113 10.0001H15.5558V5.55566H17.7691C18.388 5.55566 18.8891 6.05011 18.8891 6.66233V16.6712C18.8891 17.2823 18.3947 17.7779 17.778 17.7779H2.22244C1.60911 17.7779 1.11133 17.2834 1.11133 16.6712V6.66233C1.11133 6.05122 1.60355 5.55566 2.21911 5.55566H4.44466ZM15.5558 14.4446H4.44466V16.1112H15.5558V14.4446ZM14.4447 5.55566V10.0001H5.55577V5.55566H14.4447Z" fill="#1A1323"/>
<path d="M5.55566 2.22217H14.4446V7.77772H5.55566V2.22217Z" fill="#1A1323"/>
</svg>
